X:76
T:Captain Mackintosh’s Fancy. RHu.076
S:R.Hughes MS,1823,Whitchurch,Shrops.
A:Whitchurch , Shropshire
Z:Neil Brookes 2006
M:2/4
L:1/8
Q:1/4=140
R:Strathspey
K:C
G|c>dc>d|BGGG|c>dc>e|g3e|affd|geec|defd|cBAG|!
c>dc>d|B>GG>G|c>dc>e|g3e|affd|geec|fdcB|”cr in MS”c3::!
g>ag>a|fdde|f>gf>g|eccB|Ad/e/ fd|Be/f/ ge|afdc|cBAG|!
c>dc>d|BGGG|cdef|g3e|affd|geec|fdcB|”cr in MS”c4:|

